.tmp/img/icon-home.svg

<?xml version="1.0" encoding="UTF-8"?>
<svg width="25px" height="25px" viewBox="0 0 25 25" version="1.1" xmlns="http://www.w3.org/2000/svg" xmlns:xlink="http://www.w3.org/1999/xlink">
    <!-- Generator: Sketch 42 (36781) - http://www.bohemiancoding.com/sketch -->
    <title>Shape</title>
    <desc>Created with Sketch.</desc>
    <defs></defs>
    <g id="Welcome" stroke="none" stroke-width="1" fill="none" fill-rule="evenodd">
        <g id="Desktop-HD" transform="translate(-1340.000000, -100.000000)" fill="#272729">
            <g id="square" transform="translate(1340.000000, 100.000000)">
                <g id="Capa_1">
                    <g id="Ellipse_3">
                        <path d="M12.375,9.55371732 C10.7643088,9.55371732 9.45818015,10.8730801 9.45818015,12.5 C9.45818015,14.1269608 10.7643493,15.4463235 12.375,15.4463235 C13.9856912,15.4463235 15.2918603,14.1269608 15.2918603,12.5 C15.2918603,10.8730392 13.9862574,9.55371732 12.375,9.55371732 L12.375,9.55371732 Z M12.375,14.2677696 C11.408375,14.2677696 10.6249081,13.4763889 10.6249081,12.5 C10.6249081,11.5236111 11.408375,10.7322304 12.375,10.7322304 C13.341625,10.7322304 14.1250919,11.5236111 14.1250919,12.5 C14.1250919,13.4763889 13.341625,14.2677696 12.375,14.2677696 L12.375,14.2677696 Z M12.375,0 L0,12.5 L12.375,25 L24.75,12.5 L12.375,0 L12.375,0 Z M1.65036397,12.5 L12.375,1.66703431 L23.1002426,12.5006127 L12.375,23.3335784 L1.65036397,12.5 L1.65036397,12.5 Z" id="Shape"></path>
                    </g>
                </g>
            </g>
        </g>
    </g>
</svg>

<svg width="25" height="25" viewBox="0 0 25 25" xmlns="http://www.w3.org/2000/svg"><path d="M12.375 9.554c-1.61 0-2.917 1.32-2.917 2.946 0 1.627 1.306 2.946 2.917 2.946 1.61 0 2.917-1.319 2.917-2.946 0-1.627-1.306-2.946-2.917-2.946zm0 4.714c-.967 0-1.75-.792-1.75-1.768s.783-1.768 1.75-1.768 1.75.792 1.75 1.768-.783 1.768-1.75 1.768zm0-14.268L0 12.5 12.375 25 24.75 12.5 12.375 0zM1.65 12.5L12.375 1.667 23.1 12.501 12.375 23.334 1.65 12.5z" fill="#272729" fill-rule="evenodd"/></svg>
